X:1
T:Title
%%score ( 1 2 ) ( 3 4 )
L:1/8
Q:1/4=90
M:4/4
K:Eb
V:1 treble nm="Midi_20"
V:2 treble 
V:3 bass nm="Midi_20"
V:4 bass 
V:1
"^Vigilate (77. 73)""^William Henry Monk\n(1823-89)""^Christian, seek not yet repose""^Charlotte Elliott\n(1789-1871)" G2 G2 A2 G2 | %1
 c3 c B4 | G3 G G2 G2 | G2 A2 F4 || G3 G A2 B2 | c2 B2 E4 | A6 F2 | E8 |] %8
V:2
 E2 E2 E2 E2 | E3 E E4 | E3 F E2 F2 | E2 F2 D4 || E3 E E2 E2 | E2 D2 E4 | (E2 DC D2) D2 | E8 |] %8
V:3
"^1. Christian, seek not yet repose;\nHear thy guardian angel say,\n'Thou art in the midst of foes:\nWatch and pray.'\n\n2. Principalities and powers,\nMustering their unseen array,\nWait for thy unguarded hours\:\nWatch and pray.\n\n3. Gird thy heavenly armour on;\nWear it  ever, night and day;\nAmbushed lies the evil one:\nWatch and pray." B,2 B,2 C2 B,2 | %1
 A,3 A, G,4 | B,2 =B,2 C2 D2 | C2 C2 B,4 || %4
"^4. Hear the victors who o'ercame;\nStill they mark each warrior's way;\nAll with one sweet voice proclaim,\n'Watch and pray.'\n\n5. Hear, above all, hear the Lord,\nHim thou lovest to obey;\nHide within thy heart His word,\n'Watch and pray.'\n\n6. Watch, as if on that alone\nHung the issue of the day:\nPray that help may be sent down:\nWatch and pray." B,3 B, C2 G,2 | %5
 A,2 A,2 G,4 | A,6 A,2 | G,8 |] %8
V:4
 E,2 E,2 E,2 E,2 | E,3 E, E,4 | E,2 D,2 C,2 =B,,2 | C,2 A,,2 B,,4 || E,3 E, C,2 B,,2 | %5
 A,,2 B,,2 C,4 | (F,4 B,,2) B,,2 | E,8 |] %8

